X: 28
T:The Arran Boat
M:6/8
L:1/8
Q:1/4=119
K:EM %1 sharp
E>FE B>^cd|A>FD A>FD|E>FE B>^cd|d<FD E3|!
E>FE B>^cd|A>FD A>FD|E>FE B>^cd|d<FD E3|!
e>fe g>fe|d>BG A>FD|e>fe g>fe|^d<Bd e3|!
e>fe g>fe|d>BG A>FD|E>FE B>^cd|A>FD e3||
